actions/16/view-list-icons.svg

<?xml version="1.0" encoding="UTF-8" standalone="no"?>
<!-- Created with Inkscape (http://www.inkscape.org/) -->

<svg
   xmlns:dc="http://purl.org/dc/elements/1.1/"
   xmlns:cc="http://creativecommons.org/ns#"
   xmlns:rdf="http://www.w3.org/1999/02/22-rdf-syntax-ns#"
   xmlns:svg="http://www.w3.org/2000/svg"
   xmlns="http://www.w3.org/2000/svg"
   xmlns:sodipodi="http://sodipodi.sourceforge.net/DTD/sodipodi-0.dtd"
   xmlns:inkscape="http://www.inkscape.org/namespaces/inkscape"
   width="16.000004"
   height="16.000004"
   id="svg13094"
   version="1.1"
   inkscape:version="0.48.3.1 r9886"
   sodipodi:docname="view-list-icons.svg">
  <sodipodi:namedview
     id="base"
     pagecolor="#ffffff"
     bordercolor="#666666"
     borderopacity="1.0"
     inkscape:pageopacity="0.0"
     inkscape:pageshadow="2"
     inkscape:zoom="45.254835"
     inkscape:cx="6.3268758"
     inkscape:cy="7.905047"
     inkscape:document-units="px"
     inkscape:current-layer="svg13094"
     showgrid="true"
     inkscape:snap-bbox="true"
     inkscape:bbox-paths="true"
     inkscape:bbox-nodes="true"
     inkscape:snap-bbox-edge-midpoints="true"
     inkscape:snap-bbox-midpoints="true"
     inkscape:object-paths="true"
     inkscape:snap-intersection-paths="true"
     inkscape:object-nodes="true"
     inkscape:snap-smooth-nodes="true"
     inkscape:snap-midpoints="true"
     inkscape:snap-object-midpoints="true"
     inkscape:snap-center="true"
     showguides="true"
     inkscape:guide-bbox="true"
     inkscape:window-width="1920"
     inkscape:window-height="1023"
     inkscape:window-x="-10"
     inkscape:window-y="35"
     inkscape:window-maximized="1"
     inkscape:snap-global="true"
     fit-margin-top="0"
     fit-margin-left="0"
     fit-margin-right="0"
     fit-margin-bottom="0"
     showborder="true"
     inkscape:showpageshadow="false">
    <inkscape:grid
       type="xygrid"
       id="grid3075"
       empspacing="5"
       visible="true"
       enabled="true"
       snapvisiblegridlinesonly="true"
       originx="1.6362304e-08px"
       originy="4.9999976px" />
  </sodipodi:namedview>
  <defs
     id="defs13096" />
  <metadata
     id="metadata13099">
    <rdf:RDF>
      <cc:Work
         rdf:about="">
        <dc:format>image/svg+xml</dc:format>
        <dc:type
           rdf:resource="http://purl.org/dc/dcmitype/StillImage" />
        <dc:title />
      </cc:Work>
    </rdf:RDF>
  </metadata>
  <path
     style="color:#000000;fill:#EDEFF3;fill-opacity:0.758;fill-rule:nonzero;stroke:none;stroke-width:2;marker:none;visibility:visible;display:inline;overflow:visible;enable-background:accumulate"
     d="M 1 0 C 0.446 0 0 0.446 0 1 L 0 3 C 0 3.554 0.446 4 1 4 L 3 4 C 3.554 4 4 3.554 4 3 L 4 1 C 4 0.446 3.554 0 3 0 L 1 0 z M 7 0 C 6.446 0 6 0.44600001 6 1 L 6 3 C 6 3.554 6.446 4 7 4 L 9 4 C 9.554 4 10 3.554 10 3 L 10 1 C 10 0.44600001 9.554 0 9 0 L 7 0 z M 13 0 C 12.446 0 12 0.44600001 12 1 L 12 3 C 12 3.554 12.446 4 13 4 L 15 4 C 15.554 4 16 3.554 16 3 L 16 1 C 16 0.44600001 15.554 0 15 0 L 13 0 z M 2 1 C 2.5522847 1 3 1.4477153 3 2 C 3 2.5522847 2.5522847 3 2 3 C 1.4477153 3 1 2.5522847 1 2 C 1 1.4477153 1.4477153 1 2 1 z M 8 1 C 8.5522847 1 9 1.4477153 9 2 C 9 2.5522847 8.5522847 3 8 3 C 7.4477153 3 7 2.5522847 7 2 C 7 1.4477153 7.4477153 1 8 1 z M 14 1 C 14.552285 1 15 1.4477153 15 2 C 15 2.5522847 14.552285 3 14 3 C 13.447715 3 13 2.5522847 13 2 C 13 1.4477153 13.447715 1 14 1 z M 1 6 C 0.44600002 6 0 6.446 0 7 L 0 9 C 4.3814457e-17 9.554 0.44600002 10 1 10 L 3 10 C 3.554 10 4 9.554 4 9 L 4 7 C 4 6.446 3.554 6 3 6 L 1 6 z M 7 6 C 6.446 6 6 6.446 6 7 L 6 9 C 6 9.554 6.446 10 7 10 L 9 10 C 9.554 10 10 9.554 10 9 L 10 7 C 10 6.446 9.554 6 9 6 L 7 6 z M 13 6 C 12.446 6 12 6.446 12 7 L 12 9 C 12 9.554 12.446 10 13 10 L 15 10 C 15.554 10 16 9.554 16 9 L 16 7 C 16 6.446 15.554 6 15 6 L 13 6 z M 2 7 C 2.5522847 7 3 7.4477153 3 8 C 3 8.5522847 2.5522847 9 2 9 C 1.4477153 9 1 8.5522847 1 8 C 1 7.4477153 1.4477153 7 2 7 z M 8 7 C 8.5522847 7 9 7.4477153 9 8 C 9 8.5522847 8.5522847 9 8 9 C 7.4477153 9 7 8.5522847 7 8 C 7 7.4477153 7.4477153 7 8 7 z M 14 7 C 14.552285 7 15 7.4477153 15 8 C 15 8.5522847 14.552285 9 14 9 C 13.447715 9 13 8.5522847 13 8 C 13 7.4477153 13.447715 7 14 7 z M 1 12 C 0.44600002 12 0 12.446 0 13 L 0 15 C 0 15.554 0.44600002 16 1 16 L 3 16 C 3.554 16 4 15.554 4 15 L 4 13 C 4 12.446 3.554 12 3 12 L 1 12 z M 7 12 C 6.446 12 6 12.446 6 13 L 6 15 C 6 15.554 6.446 16 7 16 L 9 16 C 9.554 16 10 15.554 10 15 L 10 13 C 10 12.446 9.554 12 9 12 L 7 12 z M 13 12 C 12.446 12 12 12.446 12 13 L 12 15 C 12 15.554 12.446 16 13 16 L 15 16 C 15.554 16 16 15.554 16 15 L 16 13 C 16 12.446 15.554 12 15 12 L 13 12 z M 2 13 C 2.5522847 13 3 13.447716 3 14 C 3 14.552285 2.5522847 15 2 15 C 1.4477153 15 1 14.552285 1 14 C 1 13.447716 1.4477153 13 2 13 z M 8 13 C 8.5522847 13 9 13.447716 9 14 C 9 14.552285 8.5522847 15 8 15 C 7.4477153 15 7 14.552285 7 14 C 7 13.447716 7.4477153 13 8 13 z M 14 13 C 14.552285 13 15 13.447716 15 14 C 15 14.552285 14.552285 15 14 15 C 13.447715 15 13 14.552285 13 14 C 13 13.447716 13.447715 13 14 13 z "
     id="path3915" />
  <path
     style="color:#000000;fill:#485462;fill-opacity:0.7;fill-rule:nonzero;stroke:none;stroke-width:2;marker:none;visibility:visible;display:inline;overflow:visible;enable-background:accumulate"
     d="M 2 1 C 1.4477153 1 1 1.4477153 1 2 C 1 2.5522847 1.4477153 3 2 3 C 2.5522847 3 3 2.5522847 3 2 C 3 1.4477153 2.5522847 1 2 1 z M 8 1 C 7.4477153 1 7 1.4477153 7 2 C 7 2.5522847 7.4477153 3 8 3 C 8.5522847 3 9 2.5522847 9 2 C 9 1.4477153 8.5522847 1 8 1 z M 14 1 C 13.447715 1 13 1.4477153 13 2 C 13 2.5522847 13.447715 3 14 3 C 14.552285 3 15 2.5522847 15 2 C 15 1.4477153 14.552285 1 14 1 z M 2 7 C 1.4477153 7 1 7.4477153 1 8 C 1 8.5522847 1.4477153 9 2 9 C 2.5522847 9 3 8.5522847 3 8 C 3 7.4477153 2.5522847 7 2 7 z M 8 7 C 7.4477153 7 7 7.4477153 7 8 C 7 8.5522847 7.4477153 9 8 9 C 8.5522847 9 9 8.5522847 9 8 C 9 7.4477153 8.5522847 7 8 7 z M 14 7 C 13.447715 7 13 7.4477153 13 8 C 13 8.5522847 13.447715 9 14 9 C 14.552285 9 15 8.5522847 15 8 C 15 7.4477153 14.552285 7 14 7 z M 2 13 C 1.4477153 13 1 13.447716 1 14 C 1 14.552285 1.4477153 15 2 15 C 2.5522847 15 3 14.552285 3 14 C 3 13.447716 2.5522847 13 2 13 z M 8 13 C 7.4477153 13 7 13.447716 7 14 C 7 14.552285 7.4477153 15 8 15 C 8.5522847 15 9 14.552285 9 14 C 9 13.447716 8.5522847 13 8 13 z M 14 13 C 13.447715 13 13 13.447716 13 14 C 13 14.552285 13.447715 15 14 15 C 14.552285 15 15 14.552285 15 14 C 15 13.447716 14.552285 13 14 13 z "
     id="path3917" />
</svg>

<?xml version="1.0" encoding="UTF-8"?>
<svg id="a" width="16" height="16" version="1.1" xmlns="http://www.w3.org/2000/svg" xmlns:cc="http://creativecommons.org/ns#" xmlns:dc="http://purl.org/dc/elements/1.1/" xmlns:rdf="http://www.w3.org/1999/02/22-rdf-syntax-ns#">
	<metadata id="c">
		<rdf:RDF>
			<cc:Work rdf:about="">
				<dc:format>image/svg+xml</dc:format>
				<dc:type rdf:resource="http://purl.org/dc/dcmitype/StillImage"/>
				<dc:title/>
			</cc:Work>
		</rdf:RDF>
	</metadata>
	<defs id="f">
		<style id="current-color-scheme" type="text/css">.ColorScheme-Text {color:#090d11;}.ColorScheme-Background{color:#ffffff;}</style>
	</defs>
	<path id="d" d="m1 0c-0.554 0-1 0.446-1 1v2c0 0.554 0.446 1 1 1h2c0.554 0 1-0.446 1-1v-2c0-0.554-0.446-1-1-1h-2zm6 0c-0.554 0-1 0.446-1 1v2c0 0.554 0.446 1 1 1h2c0.554 0 1-0.446 1-1v-2c0-0.554-0.446-1-1-1h-2zm6 0c-0.554 0-1 0.446-1 1v2c0 0.554 0.446 1 1 1h2c0.554 0 1-0.446 1-1v-2c0-0.554-0.446-1-1-1h-2zm-11 1c0.55228 0 1 0.44772 1 1s-0.44772 1-1 1-1-0.44772-1-1 0.44772-1 1-1zm6 0c0.55228 0 1 0.44772 1 1s-0.44772 1-1 1-1-0.44772-1-1 0.44772-1 1-1zm6 0c0.55228 0 1 0.44772 1 1s-0.44772 1-1 1-1-0.44772-1-1 0.44772-1 1-1zm-13 5c-0.554 0-1 0.446-1 1v2c4.3814e-17 0.554 0.446 1 1 1h2c0.554 0 1-0.446 1-1v-2c0-0.554-0.446-1-1-1h-2zm6 0c-0.554 0-1 0.446-1 1v2c0 0.554 0.446 1 1 1h2c0.554 0 1-0.446 1-1v-2c0-0.554-0.446-1-1-1h-2zm6 0c-0.554 0-1 0.446-1 1v2c0 0.554 0.446 1 1 1h2c0.554 0 1-0.446 1-1v-2c0-0.554-0.446-1-1-1h-2zm-11 1c0.55228 0 1 0.44772 1 1s-0.44772 1-1 1-1-0.44772-1-1 0.44772-1 1-1zm6 0c0.55228 0 1 0.44772 1 1s-0.44772 1-1 1-1-0.44772-1-1 0.44772-1 1-1zm6 0c0.55228 0 1 0.44772 1 1s-0.44772 1-1 1-1-0.44772-1-1 0.44772-1 1-1zm-13 5c-0.554 0-1 0.446-1 1v2c0 0.554 0.446 1 1 1h2c0.554 0 1-0.446 1-1v-2c0-0.554-0.446-1-1-1h-2zm6 0c-0.554 0-1 0.446-1 1v2c0 0.554 0.446 1 1 1h2c0.554 0 1-0.446 1-1v-2c0-0.554-0.446-1-1-1h-2zm6 0c-0.554 0-1 0.446-1 1v2c0 0.554 0.446 1 1 1h2c0.554 0 1-0.446 1-1v-2c0-0.554-0.446-1-1-1h-2zm-11 1c0.55228 0 1 0.44772 1 1 0 0.55228-0.44772 1-1 1s-1-0.44772-1-1c0-0.55228 0.44772-1 1-1zm6 0c0.55228 0 1 0.44772 1 1 0 0.55228-0.44772 1-1 1s-1-0.44772-1-1c0-0.55228 0.44772-1 1-1zm6 0c0.55228 0 1 0.44772 1 1 0 0.55228-0.44772 1-1 1s-1-0.44772-1-1c0-0.55228 0.44772-1 1-1z" style="fill-opacity:.75;fill:currentColor" class="ColorScheme-Text"/>
	<path id="b" d="m2 1c-0.55228 0-1 0.44772-1 1s0.44772 1 1 1 1-0.44772 1-1-0.44772-1-1-1zm6 0c-0.55228 0-1 0.44772-1 1s0.44772 1 1 1 1-0.44772 1-1-0.44772-1-1-1zm6 0c-0.55228 0-1 0.44772-1 1s0.44772 1 1 1 1-0.44772 1-1-0.44772-1-1-1zm-12 6c-0.55228 0-1 0.44772-1 1s0.44772 1 1 1 1-0.44772 1-1-0.44772-1-1-1zm6 0c-0.55228 0-1 0.44772-1 1s0.44772 1 1 1 1-0.44772 1-1-0.44772-1-1-1zm6 0c-0.55228 0-1 0.44772-1 1s0.44772 1 1 1 1-0.44772 1-1-0.44772-1-1-1zm-12 6c-0.55228 0-1 0.44772-1 1 0 0.55228 0.44772 1 1 1s1-0.44772 1-1c0-0.55228-0.44772-1-1-1zm6 0c-0.55228 0-1 0.44772-1 1 0 0.55228 0.44772 1 1 1s1-0.44772 1-1c0-0.55228-0.44772-1-1-1zm6 0c-0.55228 0-1 0.44772-1 1 0 0.55228 0.44772 1 1 1s1-0.44772 1-1c0-0.55228-0.44772-1-1-1z" style="fill-opacity:.5;fill:currentColor" class="ColorScheme-Background"/>
</svg>
